assets/images/pdf.svg

<svg fill="none" height="32" viewBox="0 0 32 32" width="32" xmlns="http://www.w3.org/2000/svg"><path d="m6 17c.26522 0 .51957-.1053.70711-.2929.18753-.1875.29289-.4419.29289-.7071v-10.99998h11v5.99998c0 .2652.1054.5196.2929.7071.1875.1876.4419.2929.7071.2929h6v4c0 .2652.1054.5196.2929.7071.1875.1876.4419.2929.7071.2929s.5196-.1053.7071-.2929c.1875-.1875.2929-.4419.2929-.7071v-5c.002-.133-.0237-.265-.0753-.3877-.0517-.1226-.1282-.2332-.2247-.3248l-6.9875-6.99998c-.1905-.18573-.4465-.289-.7125-.2875h-12c-.53043 0-1.03914.21071-1.41421.58578-.37508.37508-.58579.88378-.58579 1.41422v10.99998c0 .2652.10536.5196.29289.7071.18754.1876.44189.2929.70711.2929zm14-10.58748 3.5875 3.58748h-3.5875zm-12 13.58748h-2c-.26522 0-.51957.1054-.70711.2929-.18753.1875-.29289.4419-.29289.7071v6c0 .2652.10536.5196.29289.7071.18754.1876.44189.2929.70711.2929s.51957-.1053.70711-.2929c.18753-.1875.29289-.4419.29289-.7071v-1h1c.79565 0 1.55871-.3161 2.1213-.8787.5626-.5626.8787-1.3256.8787-2.1213 0-.7956-.3161-1.5587-.8787-2.1213-.56259-.5626-1.32565-.8787-2.1213-.8787zm0 4h-1v-2h1c.26522 0 .51957.1054.70711.2929.18753.1875.29289.4419.29289.7071s-.10536.5196-.29289.7071c-.18754.1876-.44189.2929-.70711.2929zm16.5-2v1.5h2c.2652 0 .5196.1054.7071.2929s.2929.4419.2929.7071-.1054.5196-.2929.7071c-.1875.1876-.4419.2929-.7071.2929h-2v1.5c0 .2652-.1054.5196-.2929.7071-.1875.1876-.4419.2929-.7071.2929s-.5196-.1053-.7071-.2929c-.1875-.1875-.2929-.4419-.2929-.7071v-6c0-.2652.1054-.5196.2929-.7071s.4419-.2929.7071-.2929h3.5c.2652 0 .5196.1054.7071.2929s.2929.4419.2929.7071-.1054.5196-.2929.7071c-.1875.1876-.4419.2929-.7071.2929zm-8.5-2h-1.75c-.2652 0-.5196.1054-.7071.2929s-.2929.4419-.2929.7071v6c0 .2652.1054.5196.2929.7071.1875.1876.4419.2929.7071.2929h1.75c1.0609 0 2.0783-.4214 2.8284-1.1716.7502-.7501 1.1716-1.7675 1.1716-2.8284s-.4214-2.0783-1.1716-2.8284c-.7501-.7502-1.7675-1.1716-2.8284-1.1716zm0 6h-.75v-4h.75c.5304 0 1.0391.2107 1.4142.5858s.5858.8838.5858 1.4142-.2107 1.0392-.5858 1.4142c-.3751.3751-.8838.5858-1.4142.5858z" fill="#002145"/></svg>

<svg width="32" height="32" viewBox="0 0 32 32" fill="none" xmlns="http://www.w3.org/2000/svg">
<path d="M6 17C6.26522 17 6.51957 16.8947 6.70711 16.7071C6.89464 16.5196 7 16.2652 7 16V5.00002H18V11C18 11.2652 18.1054 11.5196 18.2929 11.7071C18.4804 11.8947 18.7348 12 19 12H25V16C25 16.2652 25.1054 16.5196 25.2929 16.7071C25.4804 16.8947 25.7348 17 26 17C26.2652 17 26.5196 16.8947 26.7071 16.7071C26.8946 16.5196 27 16.2652 27 16V11C27.002 10.867 26.9763 10.735 26.9247 10.6123C26.873 10.4897 26.7965 10.3791 26.7 10.2875L19.7125 3.28752C19.522 3.10179 19.266 2.99852 19 3.00002H7C6.46957 3.00002 5.96086 3.21073 5.58579 3.5858C5.21071 3.96088 5 4.46958 5 5.00002V16C5 16.2652 5.10536 16.5196 5.29289 16.7071C5.48043 16.8947 5.73478 17 6 17ZM20 6.41252L23.5875 10H20V6.41252ZM8 20H6C5.73478 20 5.48043 20.1054 5.29289 20.2929C5.10536 20.4804 5 20.7348 5 21V27C5 27.2652 5.10536 27.5196 5.29289 27.7071C5.48043 27.8947 5.73478 28 6 28C6.26522 28 6.51957 27.8947 6.70711 27.7071C6.89464 27.5196 7 27.2652 7 27V26H8C8.79565 26 9.55871 25.6839 10.1213 25.1213C10.6839 24.5587 11 23.7957 11 23C11 22.2044 10.6839 21.4413 10.1213 20.8787C9.55871 20.3161 8.79565 20 8 20ZM8 24H7V22H8C8.26522 22 8.51957 22.1054 8.70711 22.2929C8.89464 22.4804 9 22.7348 9 23C9 23.2652 8.89464 23.5196 8.70711 23.7071C8.51957 23.8947 8.26522 24 8 24ZM24.5 22V23.5H26.5C26.7652 23.5 27.0196 23.6054 27.2071 23.7929C27.3946 23.9804 27.5 24.2348 27.5 24.5C27.5 24.7652 27.3946 25.0196 27.2071 25.2071C27.0196 25.3947 26.7652 25.5 26.5 25.5H24.5V27C24.5 27.2652 24.3946 27.5196 24.2071 27.7071C24.0196 27.8947 23.7652 28 23.5 28C23.2348 28 22.9804 27.8947 22.7929 27.7071C22.6054 27.5196 22.5 27.2652 22.5 27V21C22.5 20.7348 22.6054 20.4804 22.7929 20.2929C22.9804 20.1054 23.2348 20 23.5 20H27C27.2652 20 27.5196 20.1054 27.7071 20.2929C27.8946 20.4804 28 20.7348 28 21C28 21.2652 27.8946 21.5196 27.7071 21.7071C27.5196 21.8947 27.2652 22 27 22H24.5ZM16 20H14.25C13.9848 20 13.7304 20.1054 13.5429 20.2929C13.3554 20.4804 13.25 20.7348 13.25 21V27C13.25 27.2652 13.3554 27.5196 13.5429 27.7071C13.7304 27.8947 13.9848 28 14.25 28H16C17.0609 28 18.0783 27.5786 18.8284 26.8284C19.5786 26.0783 20 25.0609 20 24C20 22.9391 19.5786 21.9217 18.8284 21.1716C18.0783 20.4214 17.0609 20 16 20ZM16 26H15.25V22H16C16.5304 22 17.0391 22.2107 17.4142 22.5858C17.7893 22.9609 18 23.4696 18 24C18 24.5304 17.7893 25.0392 17.4142 25.4142C17.0391 25.7893 16.5304 26 16 26Z" fill="#002145"/>
</svg>
